shell_integration/icons/nopadding/SVG/ok.svg

<?xml version="1.0" encoding="utf-8"?>
<!-- Generator: Adobe Illustrator 18.0.0, SVG Export Plug-In . SVG Version: 6.00 Build 0)  -->
<!DOCTYPE svg PUBLIC "-//W3C//DTD SVG 1.1//EN" "http://www.w3.org/Graphics/SVG/1.1/DTD/svg11.dtd">
<svg version="1.1" id="Sync" xmlns="http://www.w3.org/2000/svg" xmlns:xlink="http://www.w3.org/1999/xlink" x="0px" y="0px"
	 viewBox="0 0 128 128" enable-background="new 0 0 128 128" xml:space="preserve">
<g>
	<g>
		<path fill="#5EB220" d="M64,2.1c34.2,0,61.9,27.7,61.9,61.9S98.2,125.9,64,125.9C29.8,125.9,2.1,98.2,2.1,64S29.8,2.1,64,2.1z"/>
		<path fill="#3A9804" d="M64,128C28.7,128,0,99.3,0,64S28.7,0,64,0s64,28.7,64,64S99.3,128,64,128z M64,4.1C31,4.1,4.1,31,4.1,64
			S31,123.9,64,123.9c33,0,59.9-26.9,59.9-59.9S97,4.1,64,4.1z"/>
	</g>
	<g>
		<g>
			<polygon fill="#FFFFFF" points="25.7,76.8 35.9,63.8 53,77.3 87.1,31 100.3,40.7 61.3,93.9 56.2,100.7 			"/>
		</g>
		<g>
			<path fill="#3A9804" d="M87.3,32.4L98.9,41l-4.3,5.8L60.4,93.2l-4.4,6l-5.8-4.6L32.8,81.1l-5.7-4.4L36,65.3l5.7,4.4l11.5,9
				L83,38.2L87.3,32.4 M86.8,29.5l-1.2,1.7L81.3,37L52.8,75.8L43,68.1l-5.7-4.4l-1.6-1.3L34.4,64l-8.9,11.4L24.3,77l1.6,1.3l5.7,4.4
				l17.4,13.6l5.8,4.6l1.7,1.3l1.3-1.7l4.4-6L96.3,48l4.3-5.8l1.2-1.7l-1.7-1.2l-11.6-8.5L86.8,29.5L86.8,29.5z"/>
		</g>
	</g>
</g>
</svg>

<?xml version="1.0" encoding="UTF-8" standalone="no"?>
<svg
   xmlns:dc="http://purl.org/dc/elements/1.1/"
   xmlns:cc="http://creativecommons.org/ns#"
   xmlns:rdf="http://www.w3.org/1999/02/22-rdf-syntax-ns#"
   xmlns:svg="http://www.w3.org/2000/svg"
   xmlns="http://www.w3.org/2000/svg"
   xml:space="preserve"
   enable-background="new 0 0 128 128"
   viewBox="0 0 128 128"
   y="0px"
   x="0px"
   id="Sync"
   version="1.1"><metadata
     id="metadata25"><rdf:RDF><cc:Work
         rdf:about=""><dc:format>image/svg+xml</dc:format><dc:type
           rdf:resource="http://purl.org/dc/dcmitype/StillImage" /><dc:title></dc:title></cc:Work></rdf:RDF></metadata><defs
     id="defs23" /><g
     transform="matrix(0.96875,0,0,0.96875,2,2)"
     id="g3"><g
       id="g5"><path
         style="fill:#5eb220"
         id="path7"
         d="m 64,2.1 c 34.2,0 61.9,27.7 61.9,61.9 0,34.2 -27.7,61.9 -61.9,61.9 C 29.8,125.9 2.1,98.2 2.1,64 2.1,29.8 29.8,2.1 64,2.1 Z" /><path
         style="fill:#3a9804"
         id="path9"
         d="M 64,128 C 28.7,128 0,99.3 0,64 0,28.7 28.7,0 64,0 c 35.3,0 64,28.7 64,64 0,35.3 -28.7,64 -64,64 z M 64,4.1 C 31,4.1 4.1,31 4.1,64 4.1,97 31,123.9 64,123.9 97,123.9 123.9,97 123.9,64 123.9,31 97,4.1 64,4.1 Z" /></g><g
       id="g11"><g
         id="g13"><polygon
           style="fill:#ffffff"
           id="polygon15"
           points="35.9,63.8 53,77.3 87.1,31 100.3,40.7 61.3,93.9 56.2,100.7 25.7,76.8 " /></g><g
         id="g17"><path
           style="fill:#3a9804"
           id="path19"
           d="M 87.3,32.4 98.9,41 94.6,46.8 60.4,93.2 56,99.2 50.2,94.6 32.8,81.1 27.1,76.7 36,65.3 l 5.7,4.4 11.5,9 L 83,38.2 87.3,32.4 M 86.8,29.5 85.6,31.2 81.3,37 52.8,75.8 43,68.1 37.3,63.7 35.7,62.4 34.4,64 25.5,75.4 24.3,77 l 1.6,1.3 5.7,4.4 17.4,13.6 5.8,4.6 1.7,1.3 1.3,-1.7 4.4,-6 34.1,-46.5 4.3,-5.8 1.2,-1.7 -1.7,-1.2 -11.6,-8.5 -1.7,-1.3 0,0 z" /></g></g></g></svg>
